X: 38584
T: Stone In The Field, The
R: reel
M: 4/4
K: Adorian
|:EAAG ~A2Bd|ea~a2 gedB|cBAc BG~G2|AcBA GEDG|
EAAG A2Bd|ea~a2 gedB|cBcd eg~g2|dBGB AGFE:|
|:eabg ~a2ab|gabg aged|cBAc BG~G2|AcBA GED2|
ea~a2 bg~g2|afef ~g2ga|b2ba gedB|AcBG ABcd:|

